X:220
T: HEUTE WOLLEN WIR MARSCHIEREN
N: F0375
O: Europa, Mitteleuropa, Deutschland
R: Jugend - Lied, Wander -, Marsch - Lied
M: 2/4
L: 1/16
K: G
 | D2G2G2G2 | GFGAB2G2 |
d2A2A2G2 | F2E2F2D2 |
e2c2c2c2 | cBcde4 |
d2B2B2B2 | BABcd4 |
A3Bc2F2 | A4G2z2 |
e2c2c2c2 | cBcde4 |
d2B2B2B2 | BABcd4 |
A3Bc2F2 | A4G2z2

@@@ Tune index: 5651
